X:2089
T:Bread 'N' Butter
C:Ward Allen
M:2/4
L:1/16
K:A
ABcd|e2eg f2f2|e4 efed|c2Ac B2G2|A4 ABcd|
e2eg f2f2|e4 efed|c2Ac B2G2|A4:|
|:A,2A,C|EECA, B,2C2|D4 efed|c2Ac B2G2|A4 A,2A,C|
EECA, B,2C2|D4 efed|c2Ac B2G2|A4:|
|:"4 times" efed|c2Ac B2G2|A4 EFED|CB,A,C B,2G,2|A,8:|


